X: 05076
T: RICK LEE'S REEL
C: Bob McQuillen 9 May 81
B: Bob's Note Book 5 #76
%R: reel
Z: 2021 John Chambers <jc:trillian.mit.edu>
M: C
L: 1/8
K: G
|:B2B2 AcBG | B2B2 GABd | e2ed edeg | agab g2dc |\
| B2B2 AcBG | BABd edBd | g2eg edeg | dedB AGEG :|
|:A2AG ABde | gegb aged | e2eg agab | gage dBAG |\
| A2AG ABde | gegb aged | e2eg ageg | dedB dBAG :|
%%begintext align
%% We had such a
%% nice time together at Indian Neck this year.
%% Here's a tune for you, Rick, with best always -
%%endtext

%%sep 1 1 500

%%sep 1 1 500

